X:1
T:Berceuse
C:Gabriel Fauré
M:3/4
L:1/8
Q:1/4=76
K:D
% A section — Op.16 violin melody, bars 1–12 (D4–D5)
A2 |
A2 B2 A2 | F4 G2 | A2 d2 c2 | B6 |
A2 G2 F2 | E4 D2 | F2 G2 A2 | d6 |
c2 B2 A2 | G2 F2 E2 | D2 F2 A2 | D6 |]
